X:1
T:The Children May Come
T:The Children May Come
T:William Howard Doane
T:George Claude Lorimer, 1875
T:Public Domain Courtesy of the Cyber Hymnal™
C:William Howard Doane
Z:Public Domain
Z:Courtesy of the Cyber Hymnal™
%%score ( 1 2 ) 3
L:1/8
Q:1/4=90
M:6/8
K:G
V:1 treble 
V:2 treble 
V:3 bass 
V:1
 D | D[GB][GB] [GB][DA][DG] | [DF]2 [EG] [FA]2 [FA] | [FA][FA][FA] [FA][EG][FA] | %4
w: 1.~O|Je- sus, we bless Thee for|that dear word, The|mo- thers of Sa- lem so|
w: 2.~We|thank Thee that child- ren can|come and share Thy|per- fect re- demp- tion, Thy|
w: 3.~May|we who in- struct them be|well sup- plied With|wis- dom to arm them, and|
w: 4.~And|when at the judg- ment we|all ap- pear, O,|grant us a wel- come of|
 [GB]2 [GB] [FA]2 D | D[GB][GB] [GB][DA][DG] | [DF]2 [EG] [FA]2 [FA] | [FA][FA][FA] [FA][EG][FA] | %8
w: glad- ly heard; The|word that was ten- der- ly|breathed by Thee, “O|suf- fer the child- ren to|
w: love and care; That|Thou dost per- mit them Thy|lambs to be, And|kind- ly in- vite them to|
w: grace to guide; O|may our ex- am- ple and|words a- gree, While|try- ing to lead them, dear|
w: joy to hear; Per-|mit us the light of Thy|smile to see, And|bring the dear lambs of the|
 [GB]2 [FA] G3 ||"^Refrain" [Gd]2 [Gd] [Gd][Gc][GB] | [GB]3 [FA]3 | [FA]3 [FA]2 [FA] | %12
w: come to Me.”||||
w: come to Thee.||||
w: Lord, to Thee.||||
w: fold to Thee.||||
 [FA][EG][FA] [GB]3 | [Gd]2 [Gd] [GB][FA][=FG] | [EG]3 [Ge]3 | [Gd][GB][DG] [DA][DG][DF] | %16
w: ||||
w: ||||
w: ||||
w: ||||
 [DG]3- [DG]2 |] %17
w: |
w: |
w: |
w: |
V:2
 D | D x5 | x6 | x6 | x5 D | D x5 | x6 | x6 | x3 G3 || x6 | x6 | x6 | x6 | x6 | x6 | x6 | x5 |] %17
V:3
 [G,B,] | [G,B,][G,D][G,D] [G,D][G,C][G,B,] | [D,D]2 [D,D] [D,D]2 [D,D] | %3
w: |||
 [D,D][D,D][D,D] [D,D][D,D][D,D] | [G,D]2 [G,D] [D,D]2 [G,B,] | [G,B,][G,D][G,D] [G,D][G,C][G,B,] | %6
w: |||
 [D,D]2 [D,D] [D,D]2 [D,D] | [D,D][D,D][D,D] [D,D][D,D][D,D] | [G,D]2 [D,C] [G,,G,B,]3 || %9
w: |||
 [G,B,]2 [G,B,] [G,B,][G,E][G,D] | [D,D]3 [D,D]3 | [D,D]3 [D,D]2 [D,D] | [D,D][D,D][D,D] [G,D]3 | %13
w: Bless- èd Sav- ior, we|bring them,|Thine, Thine for-|ev- er to be;|
 [G,B,]2 [G,B,] [G,D][G,C][G,B,] | [C,C]3 [C,C]3 | [D,B,][D,D][D,B,] [D,C][D,B,][D,A,] | %16
w: Yes, Thy mer- cy so|ten- der|Call- eth the child- ren to|
 [G,B,]3- [G,B,]2 |] %17
w: Thee. *|

